public/avatar/item2/23.svg

<svg xmlns:xlink="http://www.w3.org/1999/xlink" height="99.2" width="82.2" xmlns="http://www.w3.org/2000/svg"><use height="9.9" transform="translate(33.3 71.45)" width="9.9" xlink:href="#a"/><defs><g id="a"><path d="M12.2 29.65q0 2.05-1.4 3.5-1.5 1.45-3.5 1.45-2.05 0-3.5-1.45-1.5-1.45-1.5-3.5t1.5-3.45q1.45-1.5 3.5-1.5 2 0 3.5 1.5 1.4 1.4 1.4 3.45" fill-rule="evenodd" transform="translate(-2.3 -24.7)"/><path d="M11.35 29.65q0 1.7-1.2 2.9-1.15 1.2-2.85 1.2-1.7 0-2.9-1.2-1.25-1.2-1.25-2.9t1.25-2.9q1.2-1.2 2.9-1.2t2.85 1.2q1.2 1.2 1.2 2.9" fill="#3d7a15" fill-rule="evenodd" transform="translate(-2.3 -24.7)"/><path d="m3.65 30.05 3.85-4.1 3.4 3.95-3.65 3.4-3.6-3.25" fill="#fff100" fill-rule="evenodd" transform="translate(-2.3 -24.7)"/><path d="M8.85 29.8q0 1.55-1.5 1.55-1.55 0-1.55-1.55 0-1.5 1.55-1.5 1.5 0 1.5 1.5" fill="#0062ff" fill-rule="evenodd" transform="translate(-2.3 -24.7)"/><path d="M4.5 27.15q1.3-.9 2.7-.9 1.8 0 2.8 1.1" fill="none" stroke="#fff" stroke-linecap="round" stroke-linejoin="round" stroke-opacity=".6" transform="translate(-2.3 -24.7)"/><path d="M10 32.4q-1.3.9-2.7.9-1.8 0-2.8-1.1" fill="none" stroke="#000" stroke-linecap="round" stroke-linejoin="round" stroke-opacity=".302" transform="translate(-2.3 -24.7)"/></g></defs></svg>

<?xml version="1.0" encoding="UTF-8" standalone="no"?>
<svg xmlns:xlink="http://www.w3.org/1999/xlink" height="99.2px" width="82.2px" xmlns="http://www.w3.org/2000/svg">
  <g transform="matrix(1.0, 0.0, 0.0, 1.0, 31.0, 46.75)">
    <use height="9.9" transform="matrix(1.0, 0.0, 0.0, 1.0, 2.3, 24.7)" width="9.9" xlink:href="#shape0"/>
  </g>
  <defs>
    <g id="shape0" transform="matrix(1.0, 0.0, 0.0, 1.0, -2.3, -24.7)">
      <path d="M12.2 29.65 Q12.2 31.7 10.8 33.15 9.3 34.6 7.3 34.6 5.25 34.6 3.8 33.15 2.3 31.7 2.3 29.65 2.3 27.6 3.8 26.2 5.25 24.7 7.3 24.7 9.3 24.7 10.8 26.2 12.2 27.6 12.2 29.65" fill="#000000" fill-rule="evenodd" stroke="none"/>
      <path d="M11.35 29.65 Q11.35 31.35 10.15 32.55 9.0 33.75 7.3 33.75 5.6 33.75 4.4 32.55 3.15 31.35 3.15 29.65 3.15 27.95 4.4 26.75 5.6 25.55 7.3 25.55 9.0 25.55 10.15 26.75 11.35 27.95 11.35 29.65" fill="#3d7a15" fill-rule="evenodd" stroke="none"/>
      <path d="M3.65 30.05 L7.5 25.95 10.9 29.9 7.25 33.3 3.65 30.05" fill="#fff100" fill-rule="evenodd" stroke="none"/>
      <path d="M8.85 29.8 Q8.85 31.35 7.35 31.35 5.8 31.35 5.8 29.8 5.8 28.3 7.35 28.3 8.85 28.3 8.85 29.8" fill="#0062ff" fill-rule="evenodd" stroke="none"/>
      <path d="M4.5 27.15 Q5.8 26.25 7.2 26.25 9.0 26.25 10.0 27.35" fill="none" stroke="#ffffff" stroke-linecap="round" stroke-linejoin="round" stroke-opacity="0.6" stroke-width="1.0"/>
      <path d="M10.0 32.4 Q8.7 33.3 7.3 33.3 5.5 33.3 4.5 32.2" fill="none" stroke="#000000" stroke-linecap="round" stroke-linejoin="round" stroke-opacity="0.3019608" stroke-width="1.0"/>
    </g>
  </defs>
</svg>
